src/assets/Icons/icon-location-compass.svg

<svg width="25" height="24" viewBox="0 0 25 24" fill="none" xmlns="http://www.w3.org/2000/svg">
<path d="M12.5908 22C18.1137 22 22.5908 17.5228 22.5908 12C22.5908 6.47715 18.1137 2 12.5908 2C7.06797 2 2.59082 6.47715 2.59082 12C2.59082 17.5228 7.06797 22 12.5908 22Z" stroke="#25282B" stroke-width="2" stroke-linecap="round" stroke-linejoin="round"/>
<path d="M16.8308 7.76001L14.7108 14.12L8.35083 16.24L10.4708 9.88001L16.8308 7.76001Z" stroke="#25282B" stroke-width="2" stroke-linecap="round" stroke-linejoin="round"/>
</svg>

<svg xmlns="http://www.w3.org/2000/svg" viewBox="0 0 25 24"><path stroke-linecap="round" stroke-linejoin="round" stroke-width="2" d="M12.59 22c5.524 0 10-4.477 10-10s-4.476-10-10-10c-5.522 0-10 4.477-10 10s4.478 10 10 10Z"/><path stroke-linecap="round" stroke-linejoin="round" stroke-width="2" d="m16.83 7.76-2.12 6.36-6.36 2.12 2.12-6.36 6.36-2.12Z"/></svg>
